images/logo_trustpilot_desktop.svg

<svg width="180" height="64" fill="none" xmlns="http://www.w3.org/2000/svg"><path fill-rule="evenodd" clip-rule="evenodd" d="M26.5875 22.9226h16.3619l-13.2348 9.7213 5.0538 15.7232-13.2348-9.7213L8.283 48.3671l5.0697-15.7232L.102051 22.9066l16.361949.016 5.0696-15.73925 5.0539 15.73925Zm38.6465-.001H47.1032v3.416h7.0912v19.2032h3.9168V26.3376h7.1228v-3.416Zm2.5743 6.2414h-3.364v16.3618h3.5693V37.735c0-.9099.1106-1.708.3475-2.4103.2369-.7024.5527-1.2771.9476-1.7559.3948-.463.8528-.8301 1.3898-1.0695.5369-.2395 1.1055-.3672 1.7057-.3672.2526 0 .5053.016.7738.0479.2685.0319.5212.0638.7739.1117v-3.4798c-.0928-.0086-.1811-.0216-.2673-.0344-.0751-.0111-.1487-.022-.2223-.0295-.1579-.0159-.458-.0319-.8686-.0319-.537 0-1.074.1117-1.5952.3192-.5211.2235-.9949.4949-1.4214.8461-.4264.3352-.7896.7343-1.0897 1.1493-.3001.415-.5054.846-.6159 1.293h-.0632V29.163Zm19.0468 16.3778h3.5061V29.179h-3.5693v9.4978c0 .6385-.0632 1.2291-.2053 1.7719-.1422.5427-.3633 1.0216-.6791 1.4047-.3001.3991-.7107.7024-1.2161.9418-.5054.2394-1.1213.3512-1.8794.3512-.9792 0-1.7531-.3033-2.2901-.8939-.5527-.5907-.8212-1.6123-.8212-3.0489V29.163h-3.5693v10.3918c0 2.1549.4738 3.7672 1.4214 4.8367.9476 1.0695 2.4953 1.5962 4.6274 1.5962.9003 0 1.7847-.2554 2.6533-.7502.8687-.4949 1.5162-1.1493 1.9584-1.9794h.0632v2.2827Zm10.771-3.0329c-.6791-.431-1.0739-1.1653-1.1845-2.2188v.0319h-3.6008c.0315.9737.2211 1.8197.5843 2.5221.3633.7023.8686 1.293 1.5004 1.7718.6317.463 1.3898.8141 2.2584 1.0536.8687.2394 1.8163.3512 2.8431.3512.837 0 1.69-.0958 2.542-.2874.853-.1915 1.643-.5108 2.338-.9258.695-.415 1.263-.9737 1.706-1.6442.442-.6864.663-1.5005.663-2.4742 0-.7981-.158-1.4845-.458-2.0272-.3-.5428-.695-.9897-1.185-1.3569-.489-.3671-1.042-.6544-1.674-.862-.631-.2075-1.263-.399-1.911-.5427-.143-.0309-.285-.0619-.426-.0926-.515-.1122-1.021-.2222-1.516-.3224-.632-.1277-1.1848-.2874-1.6744-.4629-.4896-.1916-.8844-.4151-1.1845-.6864-.3001-.2714-.458-.6226-.458-1.0695 0-.3672.1105-.6545.3159-.878.2211-.2235.4738-.3991.7738-.5108.3159-.1117.6318-.1915.9792-.2394.3475-.0479.6475-.0639.9002-.0639.7898 0 1.5008.1437 2.1168.447.615.2873.995.8779 1.168 1.7399h3.727c-.11-.9099-.363-1.692-.773-2.3305-.411-.6386-.916-1.1653-1.532-1.5644-.616-.415-1.311-.7024-2.069-.8779-.758-.1756-1.564-.2714-2.4009-.2714-.7265 0-1.5003.0798-2.3058.2235-.8054.1596-1.532.415-2.1953.7821-.6475.3672-1.2003.8461-1.6267 1.4526-.4264.6066-.6475 1.3409-.6475 2.2348 0 .8301.1421 1.5165.4422 2.0752.2843.5587.6791 1.0216 1.1687 1.3728.4896.3671 1.0424.6544 1.6583.862.6159.2075 1.2635.399 1.9268.5427.117.0259.2335.0519.3495.0778.5263.1172 1.0439.2326 1.5617.3372.632.1277 1.184.2873 1.674.4629.489.1916.884.4151 1.2.7184.316.2873.49.6704.506 1.1333.015.4629-.095.8301-.332 1.1174-.253.2873-.553.5108-.932.6545-.363.1436-.774.2554-1.2.3033-.427.0478-.806.0798-1.137.0798-.9637 0-1.785-.2235-2.4799-.6385ZM110.924 29.163h-2.669v2.7297h2.701v9.6574c.016.6704.094 1.277.205 1.8038.126.5268.332.9578.663 1.3089.316.3512.774.6226 1.343.7982.568.1756 1.326.2713 2.274.2713.395 0 .774-.0159 1.153-.0638.198-.0262.406-.0476.618-.0694.177-.0181.356-.0366.535-.0583v-2.7935c-.253.0639-.506.0958-.758.1117-.253.016-.506.016-.758.016-.411 0-.711-.0479-.948-.1437-.237-.0957-.411-.2394-.521-.4309-.111-.1916-.19-.431-.221-.7024-.032-.2873-.048-.6066-.048-.9897v-8.7476h3.222V29.163h-3.222v-4.9165h-3.569v4.9165Zm12.698 0h-3.38v22.4276h3.57v-8.1729h.063c.284.431.616.8141 1.026 1.1494.395.3352.853.6065 1.327.8141.474.2075.979.3671 1.5.4629.521.0957 1.043.1436 1.564.1436 1.2 0 2.227-.2394 3.111-.7183.885-.4789 1.611-1.1014 2.18-1.8995.568-.7982.995-1.7081 1.279-2.7456.284-1.0216.426-2.0911.426-3.1926 0-1.1972-.158-2.3305-.474-3.3841-.315-1.0535-.773-1.9793-1.405-2.7775-.632-.7981-1.422-1.4207-2.369-1.8676-.948-.4629-2.053-.6864-3.333-.6864-1.058 0-2.021.2075-2.921.6225-.901.4151-1.595 1.0855-2.101 2.0433h-.063V29.163Zm8.813 6.0499c.189.7024.284 1.4207.284 2.155 0 .7183-.079 1.4207-.221 2.1071-.158.6864-.427 1.2929-.79 1.8357-.363.5267-.821.9737-1.39 1.3089-.568.3352-1.247.5108-2.069.5108-.726 0-1.374-.1437-1.926-.4469-.553-.2874-1.027-.6864-1.422-1.1972-.41-.5109-.695-1.1174-.9-1.8198-.205-.7024-.3-1.4686-.3-2.2986 0-1.7559.379-3.1606 1.137-4.2142.758-1.0535 1.895-1.5803 3.396-1.5803.726 0 1.374.1756 1.942.4949.553.3192 1.027.7502 1.406 1.2929.379.5428.663 1.1494.853 1.8517Zm10.155-12.2913h-3.569v3.416h3.569v-3.416Zm0 6.2414h-3.569v16.3778h3.569V29.163Zm6.759-6.2414h-3.569v22.6192h3.569V22.9216Zm7.486 22.4117c1.011.431 2.164.6544 3.459.6544s2.448-.2234 3.459-.6544c1.011-.431 1.879-1.0216 2.574-1.7879.695-.7662 1.232-1.676 1.595-2.7296.364-1.0535.553-2.2188.553-3.4798 0-1.2451-.189-2.3945-.553-3.448-.363-1.0535-.9-1.9634-1.595-2.7296-.71-.7503-1.563-1.3568-2.574-1.7878-1.011-.431-2.164-.6545-3.459-.6545s-2.448.2235-3.459.6545c-1.01.431-1.879 1.0216-2.574 1.7878-.695.7662-1.232 1.6761-1.595 2.7296s-.553 2.2029-.553 3.448c0 1.261.19 2.4263.553 3.4798.363 1.0536.9 1.9634 1.595 2.7296.711.7503 1.564 1.3569 2.574 1.7879Zm5.528-2.7137c-.584.3352-1.279.5108-2.069.5108s-1.484-.1596-2.069-.5108c-.584-.3352-1.058-.7822-1.437-1.3249s-.663-1.1653-.837-1.8517c-.174-.6864-.269-1.3887-.269-2.107 0-.7024.095-1.3888.269-2.0912.189-.7023.458-1.3089.837-1.8516.379-.5268.853-.9738 1.437-1.309.585-.3352 1.279-.5108 2.069-.5108s1.485.1756 2.069.5108c.584.3352 1.058.7662 1.437 1.309.379.5427.664 1.1493.837 1.8516.174.7024.269 1.3888.269 2.0912 0 .7183-.095 1.4206-.269 2.107-.189.6864-.458 1.309-.837 1.8517-.379.5427-.853.9897-1.437 1.3249Zm9.855-13.4566h-2.669v2.7297h2.701v9.6574c.016.6704.094 1.277.205 1.8038.126.5268.332.9578.663 1.3089.316.3512.774.6226 1.343.7982.568.1756 1.326.2713 2.274.2713.395 0 .774-.0159 1.153-.0638.198-.0262.406-.0476.618-.0694.177-.0181.356-.0366.535-.0583v-2.7935c-.253.0639-.506.0958-.758.1117-.253.016-.506.016-.758.016-.411 0-.711-.0479-.948-.1437-.237-.0957-.411-.2394-.521-.4309-.111-.1916-.19-.431-.221-.7024-.032-.2873-.048-.6066-.048-.9897v-8.7476h3.222V29.163h-3.222v-4.9165h-3.569v4.9165Z" fill="#fff"/></svg>

<svg width="180" height="64" viewBox="0 0 180 64" fill="none" xmlns="http://www.w3.org/2000/svg">
<path fill-rule="evenodd" clip-rule="evenodd" d="M26.5875 22.9226H42.9494L29.7146 32.6439L34.7684 48.3671L21.5336 38.6458L8.283 48.3671L13.3527 32.6439L0.102051 22.9066L16.464 22.9226L21.5336 7.18335L26.5875 22.9226ZM65.234 22.9216H47.119H47.1032V26.3376H54.1944V45.5408H58.1112V26.3376H65.234V22.9216ZM67.8083 29.163H64.4601H64.4443V45.5248H68.0136V37.735C68.0136 36.8251 68.1242 36.027 68.3611 35.3247C68.598 34.6223 68.9138 34.0476 69.3087 33.5688C69.7035 33.1058 70.1615 32.7387 70.6985 32.4993C71.2354 32.2598 71.804 32.1321 72.4042 32.1321C72.6568 32.1321 72.9095 32.1481 73.178 32.18C73.4465 32.2119 73.6992 32.2438 73.9519 32.2917V28.8119C73.8591 28.8033 73.7708 28.7903 73.6846 28.7775C73.6095 28.7664 73.5359 28.7555 73.4623 28.748C73.3044 28.7321 73.0043 28.7161 72.5937 28.7161C72.0567 28.7161 71.5197 28.8278 70.9985 29.0353C70.4774 29.2588 70.0036 29.5302 69.5771 29.8814C69.1507 30.2166 68.7875 30.6157 68.4874 31.0307C68.1873 31.4457 67.982 31.8767 67.8715 32.3237H67.8083V29.163ZM86.8551 45.5408H90.3612V29.179H86.7919V38.6768C86.7919 39.3153 86.7287 39.9059 86.5866 40.4487C86.4444 40.9914 86.2233 41.4703 85.9075 41.8534C85.6074 42.2525 85.1968 42.5558 84.6914 42.7952C84.186 43.0346 83.5701 43.1464 82.812 43.1464C81.8328 43.1464 81.0589 42.8431 80.5219 42.2525C79.9692 41.6618 79.7007 40.6402 79.7007 39.2036V29.163H76.1314V39.5548C76.1314 41.7097 76.6052 43.322 77.5528 44.3915C78.5004 45.461 80.0481 45.9877 82.1802 45.9877C83.0805 45.9877 83.9649 45.7323 84.8335 45.2375C85.7022 44.7426 86.3497 44.0882 86.7919 43.2581H86.8551V45.5408ZM97.6261 42.5079C96.947 42.0769 96.5522 41.3426 96.4416 40.2891V40.321H92.8408C92.8723 41.2947 93.0619 42.1407 93.4251 42.8431C93.7884 43.5454 94.2937 44.1361 94.9255 44.6149C95.5572 45.0779 96.3153 45.429 97.1839 45.6685C98.0526 45.9079 99.0002 46.0197 100.027 46.0197C100.864 46.0197 101.717 45.9239 102.569 45.7323C103.422 45.5408 104.212 45.2215 104.907 44.8065C105.602 44.3915 106.17 43.8328 106.613 43.1623C107.055 42.4759 107.276 41.6618 107.276 40.6881C107.276 39.89 107.118 39.2036 106.818 38.6609C106.518 38.1181 106.123 37.6712 105.633 37.304C105.144 36.9369 104.591 36.6496 103.959 36.442C103.328 36.2345 102.696 36.043 102.048 35.8993C101.905 35.8684 101.763 35.8374 101.622 35.8067C101.107 35.6945 100.601 35.5845 100.106 35.4843C99.474 35.3566 98.9212 35.1969 98.4316 35.0214C97.942 34.8298 97.5472 34.6063 97.2471 34.335C96.947 34.0636 96.7891 33.7124 96.7891 33.2655C96.7891 32.8983 96.8996 32.611 97.105 32.3875C97.3261 32.164 97.5788 31.9884 97.8788 31.8767C98.1947 31.765 98.5106 31.6852 98.858 31.6373C99.2055 31.5894 99.5055 31.5734 99.7582 31.5734C100.548 31.5734 101.259 31.7171 101.875 32.0204C102.49 32.3077 102.87 32.8983 103.043 33.7603H106.77C106.66 32.8504 106.407 32.0683 105.997 31.4298C105.586 30.7912 105.081 30.2645 104.465 29.8654C103.849 29.4504 103.154 29.163 102.396 28.9875C101.638 28.8119 100.832 28.7161 99.9951 28.7161C99.2686 28.7161 98.4948 28.7959 97.6893 28.9396C96.8839 29.0992 96.1573 29.3546 95.494 29.7217C94.8465 30.0889 94.2937 30.5678 93.8673 31.1743C93.4409 31.7809 93.2198 32.5152 93.2198 33.4091C93.2198 34.2392 93.3619 34.9256 93.662 35.4843C93.9463 36.043 94.3411 36.5059 94.8307 36.8571C95.3203 37.2242 95.8731 37.5115 96.489 37.7191C97.1049 37.9266 97.7525 38.1181 98.4158 38.2618C98.5328 38.2877 98.6493 38.3137 98.7653 38.3396C99.2916 38.4568 99.8092 38.5722 100.327 38.6768C100.959 38.8045 101.511 38.9641 102.001 39.1397C102.49 39.3313 102.885 39.5548 103.201 39.8581C103.517 40.1454 103.691 40.5285 103.707 40.9914C103.722 41.4543 103.612 41.8215 103.375 42.1088C103.122 42.3961 102.822 42.6196 102.443 42.7633C102.08 42.9069 101.669 43.0187 101.243 43.0666C100.816 43.1144 100.437 43.1464 100.106 43.1464C99.1423 43.1464 98.321 42.9229 97.6261 42.5079ZM110.924 29.163H108.255V31.8927H110.956V41.5501C110.972 42.2205 111.05 42.8271 111.161 43.3539C111.287 43.8807 111.493 44.3117 111.824 44.6628C112.14 45.014 112.598 45.2854 113.167 45.461C113.735 45.6366 114.493 45.7323 115.441 45.7323C115.836 45.7323 116.215 45.7164 116.594 45.6685C116.792 45.6423 117 45.6209 117.212 45.5991C117.389 45.581 117.568 45.5625 117.747 45.5408V42.7473C117.494 42.8112 117.241 42.8431 116.989 42.859C116.736 42.875 116.483 42.875 116.231 42.875C115.82 42.875 115.52 42.8271 115.283 42.7313C115.046 42.6356 114.872 42.4919 114.762 42.3004C114.651 42.1088 114.572 41.8694 114.541 41.598C114.509 41.3107 114.493 40.9914 114.493 40.6083V31.8607H117.715V29.163H114.493V24.2465H110.924V29.163ZM123.622 29.163H120.242V51.5906H123.812V43.4177H123.875C124.159 43.8487 124.491 44.2318 124.901 44.5671C125.296 44.9023 125.754 45.1736 126.228 45.3812C126.702 45.5887 127.207 45.7483 127.728 45.8441C128.249 45.9398 128.771 45.9877 129.292 45.9877C130.492 45.9877 131.519 45.7483 132.403 45.2694C133.288 44.7905 134.014 44.168 134.583 43.3699C135.151 42.5717 135.578 41.6618 135.862 40.6243C136.146 39.6027 136.288 38.5332 136.288 37.4317C136.288 36.2345 136.13 35.1012 135.814 34.0476C135.499 32.9941 135.041 32.0683 134.409 31.2701C133.777 30.472 132.987 29.8494 132.04 29.4025C131.092 28.9396 129.987 28.7161 128.707 28.7161C127.649 28.7161 126.686 28.9236 125.786 29.3386C124.885 29.7537 124.191 30.4241 123.685 31.3819H123.622V29.163ZM132.435 35.2129C132.624 35.9153 132.719 36.6336 132.719 37.3679C132.719 38.0862 132.64 38.7886 132.498 39.475C132.34 40.1614 132.071 40.7679 131.708 41.3107C131.345 41.8374 130.887 42.2844 130.318 42.6196C129.75 42.9548 129.071 43.1304 128.249 43.1304C127.523 43.1304 126.875 42.9867 126.323 42.6835C125.77 42.3961 125.296 41.9971 124.901 41.4863C124.491 40.9754 124.206 40.3689 124.001 39.6665C123.796 38.9641 123.701 38.1979 123.701 37.3679C123.701 35.612 124.08 34.2073 124.838 33.1537C125.596 32.1002 126.733 31.5734 128.234 31.5734C128.96 31.5734 129.608 31.749 130.176 32.0683C130.729 32.3875 131.203 32.8185 131.582 33.3612C131.961 33.904 132.245 34.5106 132.435 35.2129ZM142.59 22.9216H139.021V26.3376H142.59V22.9216ZM142.59 29.163H139.021V45.5408H142.59V29.163ZM149.349 22.9216H145.78V45.5408H149.349V22.9216ZM156.835 45.3333C157.846 45.7643 158.999 45.9877 160.294 45.9877C161.589 45.9877 162.742 45.7643 163.753 45.3333C164.764 44.9023 165.632 44.3117 166.327 43.5454C167.022 42.7792 167.559 41.8694 167.922 40.8158C168.286 39.7623 168.475 38.597 168.475 37.336C168.475 36.0909 168.286 34.9415 167.922 33.888C167.559 32.8345 167.022 31.9246 166.327 31.1584C165.617 30.4081 164.764 29.8016 163.753 29.3706C162.742 28.9396 161.589 28.7161 160.294 28.7161C158.999 28.7161 157.846 28.9396 156.835 29.3706C155.825 29.8016 154.956 30.3922 154.261 31.1584C153.566 31.9246 153.029 32.8345 152.666 33.888C152.303 34.9415 152.113 36.0909 152.113 37.336C152.113 38.597 152.303 39.7623 152.666 40.8158C153.029 41.8694 153.566 42.7792 154.261 43.5454C154.972 44.2957 155.825 44.9023 156.835 45.3333ZM162.363 42.6196C161.779 42.9548 161.084 43.1304 160.294 43.1304C159.504 43.1304 158.81 42.9708 158.225 42.6196C157.641 42.2844 157.167 41.8374 156.788 41.2947C156.409 40.752 156.125 40.1294 155.951 39.443C155.777 38.7566 155.682 38.0543 155.682 37.336C155.682 36.6336 155.777 35.9472 155.951 35.2448C156.14 34.5425 156.409 33.9359 156.788 33.3932C157.167 32.8664 157.641 32.4194 158.225 32.0842C158.81 31.749 159.504 31.5734 160.294 31.5734C161.084 31.5734 161.779 31.749 162.363 32.0842C162.947 32.4194 163.421 32.8504 163.8 33.3932C164.179 33.9359 164.464 34.5425 164.637 35.2448C164.811 35.9472 164.906 36.6336 164.906 37.336C164.906 38.0543 164.811 38.7566 164.637 39.443C164.448 40.1294 164.179 40.752 163.8 41.2947C163.421 41.8374 162.947 42.2844 162.363 42.6196ZM172.218 29.163H169.549V31.8927H172.25V41.5501C172.266 42.2205 172.344 42.8271 172.455 43.3539C172.581 43.8807 172.787 44.3117 173.118 44.6628C173.434 45.014 173.892 45.2854 174.461 45.461C175.029 45.6366 175.787 45.7323 176.735 45.7323C177.13 45.7323 177.509 45.7164 177.888 45.6685C178.086 45.6423 178.294 45.6209 178.506 45.5991C178.683 45.581 178.862 45.5625 179.041 45.5408V42.7473C178.788 42.8112 178.535 42.8431 178.283 42.859C178.03 42.875 177.777 42.875 177.525 42.875C177.114 42.875 176.814 42.8271 176.577 42.7313C176.34 42.6356 176.166 42.4919 176.056 42.3004C175.945 42.1088 175.866 41.8694 175.835 41.598C175.803 41.3107 175.787 40.9914 175.787 40.6083V31.8607H179.009V29.163H175.787V24.2465H172.218V29.163Z" fill="white"/>
</svg>
